src/assets/icons/video.svg

<svg widh="100%" height="100%" viewBox="0 0 24 24" fill="current"
  xmlns="http://www.w3.org/2000/svg">
  <path fill-rule="evenodd" clip-rule="evenodd" d="M20.549 3.87059C22.1151 3.96526 23.3774 5.23488 23.5627 6.70035C24.1334 10.9103 24.1331 13.0824 23.6341 17.2881L23.6312 17.3132L23.6265 17.338C23.3619 18.7492 22.1331 20.0322 20.617 20.1269L20.616 20.127C17.1731 20.3378 14.5514 20.4798 11.9954 20.4798C9.43918 20.4798 6.81758 20.3378 3.44408 20.1269C1.96288 20.0343 0.615488 18.7789 0.428024 17.2969C-0.142675 13.0868 -0.142675 10.9106 0.428023 6.70042C0.61174 5.24727 1.86327 3.96693 3.36992 3.8707C10.2201 3.37644 13.6297 3.37646 20.549 3.87059ZM20.4465 5.36652C13.5939 4.87705 10.2561 4.87709 3.47452 5.36648L3.47092 5.36674L3.46733 5.36696C2.728 5.41317 2.01448 6.09752 1.91535 6.89055L1.91486 6.89443L1.91434 6.89829C1.36112 10.9783 1.36112 13.0191 1.91434 17.0991L1.91486 17.1029L1.91535 17.1068C2.01101 17.8722 2.77105 18.5825 3.53761 18.6304C6.91151 18.8413 9.49104 18.9804 11.9954 18.9804C14.4997 18.9804 17.0789 18.8413 20.5235 18.6304C21.2499 18.585 21.9823 17.9119 22.1484 17.0843C22.63 13.0156 22.6286 10.9707 22.0764 6.89829L22.0759 6.89443L22.0754 6.89055C21.9779 6.11023 21.2757 5.41535 20.4559 5.36713L20.4512 5.36685L20.4465 5.36652ZM10.6534 9.6743V14.3231L14.6794 11.9987L10.6534 9.6743ZM9.15398 9.24145C9.15398 8.27957 10.1952 7.6784 11.0283 8.15934L15.8039 10.9166C16.6369 11.3975 16.6369 12.5999 15.8039 13.0808L11.0283 15.838C10.1952 16.319 9.15398 15.7178 9.15398 14.7559V9.24145Z"/>
</svg>

<svg xmlns="http://www.w3.org/2000/svg" fill="currentColor" viewBox="0 0 24 24">
  <path fill-rule="evenodd" d="M20.549 3.87c1.566.095 2.828 1.365 3.014 2.83.57 4.21.57 6.382.071 10.588l-.003.025-.005.025c-.264 1.411-1.493 2.694-3.009 2.789h-.001c-3.443.21-6.065.353-8.62.353-2.557 0-5.178-.142-8.552-.353-1.481-.093-2.829-1.348-3.016-2.83-.57-4.21-.57-6.386 0-10.597.184-1.453 1.435-2.733 2.942-2.83 6.85-.494 10.26-.494 17.179 0Zm-.102 1.497c-6.853-.49-10.19-.49-16.972 0h-.008c-.739.046-1.453.73-1.552 1.524v.007c-.554 4.08-.554 6.121 0 10.201v.008c.096.765.856 1.476 1.623 1.523 3.374.211 5.953.35 8.457.35 2.505 0 5.084-.139 8.528-.35.727-.045 1.46-.718 1.625-1.546.482-4.068.48-6.113-.072-10.186v-.007c-.098-.78-.8-1.476-1.62-1.524h-.01Zm-9.794 4.307v4.65l4.026-2.325-4.026-2.325Zm-1.499-.433a1.25 1.25 0 0 1 1.874-1.082l4.776 2.758a1.25 1.25 0 0 1 0 2.164l-4.776 2.757a1.25 1.25 0 0 1-1.874-1.082V9.24Z" clip-rule="evenodd"/>
</svg>
